X: 411	% 117
T: Chicken Reel
S: Viola Ruth "Pioneer Western Folk Tunes" 1948 p.41 #1
R: reel
Z: 2019 John Chambers <jc:trillian.mit.edu>
M: 2/4
L: 1/16
K: D
V: 1 name="117"
|:\
{e=f}^fd AF DFBA | AFBF A4 |\
{e=f}^fd AF DFBA | Addc d4 ::\
fgaf defd | BcdB B3A |
fgaf defd | MB2Mc2 Md4 ::\
[f2d2][f2d2][f2d2][f2d2] |\
"^gliss."[fd]d'3 ba3 |\
[f2d2][f2d2][f2d2][f2d2] | afef d4 |\
[f2d2][f2d2][f2d2][f2d2] | "^gliss."[fd]d'3 bd'3 |\
[f2d2][f2d2][f2d2][f2d2] | afef d4 :|
